src/pos-icons/tag.svg

<svg height="24" viewBox="0 0 24 24" width="24" xmlns="http://www.w3.org/2000/svg"><path d="m5.5 7a1.5 1.5 0 0 1 -1.5-1.5 1.5 1.5 0 0 1 1.5-1.5 1.5 1.5 0 0 1 1.5 1.5 1.5 1.5 0 0 1 -1.5 1.5m15.91 4.58-9-9c-.36-.36-.86-.58-1.41-.58h-7c-1.11 0-2 .89-2 2v7c0 .55.22 1.05.59 1.41l8.99 9c.37.36.87.59 1.42.59s1.05-.23 1.41-.59l7-7c.37-.36.59-.86.59-1.41 0-.56-.23-1.06-.59-1.42z"/></svg>

<?xml version="1.0" encoding="UTF-8"?><!DOCTYPE svg PUBLIC "-//W3C//DTD SVG 1.1//EN" "http://www.w3.org/Graphics/SVG/1.1/DTD/svg11.dtd"><svg xmlns="http://www.w3.org/2000/svg" xmlns:xlink="http://www.w3.org/1999/xlink" version="1.1" id="mdi-tag" width="24" height="24" viewBox="0 0 24 24"><path d="M5.5,7A1.5,1.5 0 0,1 4,5.5A1.5,1.5 0 0,1 5.5,4A1.5,1.5 0 0,1 7,5.5A1.5,1.5 0 0,1 5.5,7M21.41,11.58L12.41,2.58C12.05,2.22 11.55,2 11,2H4C2.89,2 2,2.89 2,4V11C2,11.55 2.22,12.05 2.59,12.41L11.58,21.41C11.95,21.77 12.45,22 13,22C13.55,22 14.05,21.77 14.41,21.41L21.41,14.41C21.78,14.05 22,13.55 22,13C22,12.44 21.77,11.94 21.41,11.58Z" /></svg>
